(fusion-gcode-drill)
G90 G21

(T5  D=0.3 CR=0 TAPER=118deg - ZMIN=-1.780 - drill)
M6 T5
M3 S18000
M801 S100
G0 Z2 F3000
G0 X10.000 Y45.862
G0 Z0.500
G1 Z-1.780 F70
G0 Z2.000
G0 X10.045 Y42.272
G0 Z0.500
G1 Z-1.780 F70
G0 Z2.000
G0 X10.452 Y32.395
G0 Z0.500
G1 Z-1.780 F70
G0 Z2.000
G0 X11.317 Y40.625
G0 Z0.500
G1 Z-1.780 F70
G0 Z2.000
G0 X11.468 Y37.263
G0 Z0.500
G1 Z-1.780 F70
G0 Z2.000
G0 X11.829 Y36.064
G0 Z0.500
G1 Z-1.780 F70
G0 Z2.000
G0 X12.029 Y43.544
G0 Z0.500
G1 Z-1.780 F70
G0 Z2.000
G0 X12.181 Y38.725
G0 Z0.500
G1 Z-1.780 F70
G0 Z2.000
G0 X12.328 Y10.055
G0 Z0.500
G1 Z-1.780 F70
G0 Z2.000
G0 X12.360 Y10.922
G0 Z0.500
G1 Z-1.780 F70
G0 Z2.000
G0 X12.369 Y22.550
G0 Z0.500
G1 Z-1.780 F70
G0 Z2.000
G0 X12.401 Y34.539
G0 Z0.500
G1 Z-1.780 F70
G0 Z2.000
G0 X12.567 Y40.307
G0 Z0.500
G1 Z-1.780 F70
G0 Z2.000
G0 X12.570 Y41.704
G0 Z0.500
G1 Z-1.780 F70
G0 Z2.000
G0 X12.753 Y21.564
G0 Z0.500
G1 Z-1.780 F70
G0 Z2.000
G0 X12.829 Y36.750
G0 Z0.500
G1 Z-1.780 F70
G0 Z2.000
G0 X12.845 Y37.607
G0 Z0.500
G1 Z-1.780 F70
G0 Z2.000
G0 X12.967 Y15.503
G0 Z0.500
G1 Z-1.780 F70
G0 Z2.000
G0 X12.981 Y43.892
G0 Z0.500
G1 Z-1.780 F70
G0 Z2.000
G0 X13.043 Y28.559
G0 Z0.500
G1 Z-1.780 F70
G0 Z2.000
G0 X13.582 Y21.641
G0 Z0.500
G1 Z-1.780 F70
G0 Z2.000
G0 X13.630 Y37.884
G0 Z0.500
G1 Z-1.780 F70
G0 Z2.000
G0 X14.025 Y34.956
G0 Z0.500
G1 Z-1.780 F70
G0 Z2.000
G0 X14.052 Y26.764
G0 Z0.500
G1 Z-1.780 F70
G0 Z2.000
G0 X14.356 Y21.436
G0 Z0.500
G1 Z-1.780 F70
G0 Z2.000
G0 X14.359 Y45.924
G0 Z0.500
G1 Z-1.780 F70
G0 Z2.000
G0 X14.710 Y36.867
G0 Z0.500
G1 Z-1.780 F70
G0 Z2.000
G0 X15.306 Y41.945
G0 Z0.500
G1 Z-1.780 F70
G0 Z2.000
G0 X15.346 Y21.457
G0 Z0.500
G1 Z-1.780 F70
G0 Z2.000
G0 X15.484 Y24.267
G0 Z0.500
G1 Z-1.780 F70
G0 Z2.000
G0 X15.584 Y27.535
G0 Z0.500
G1 Z-1.780 F70
G0 Z2.000
G0 X15.609 Y47.577
G0 Z0.500
G1 Z-1.780 F70
G0 Z2.000
G0 X15.688 Y26.603
G0 Z0.500
G1 Z-1.780 F70
G0 Z2.000
G0 X15.832 Y35.794
G0 Z0.500
G1 Z-1.780 F70
G0 Z2.000
G0 X15.832 Y33.610
G0 Z0.500
G1 Z-1.780 F70
G0 Z2.000
G0 X15.901 Y48.322
G0 Z0.500
G1 Z-1.780 F70
G0 Z2.000
G0 X16.037 Y29.670
G0 Z0.500
G1 Z-1.780 F70
G0 Z2.000
G0 X16.907 Y47.634
G0 Z0.500
G1 Z-1.780 F70
G0 Z2.000
G0 X17.035 Y32.483
G0 Z0.500
G1 Z-1.780 F70
G0 Z2.000
G0 X17.210 Y25.891
G0 Z0.500
G1 Z-1.780 F70
G0 Z2.000
G0 X17.368 Y21.143
G0 Z0.500
G1 Z-1.780 F70
G0 Z2.000
G0 X17.423 Y29.148
G0 Z0.500
G1 Z-1.780 F70
G0 Z2.000
G0 X17.607 Y48.021
G0 Z0.500
G1 Z-1.780 F70
G0 Z2.000
G0 X17.730 Y38.593
G0 Z0.500
G1 Z-1.780 F70
G0 Z2.000
G0 X17.968 Y11.076
G0 Z0.500
G1 Z-1.780 F70
G0 Z2.000
G0 X17.976 Y10.023
G0 Z0.500
G1 Z-1.780 F70
G0 Z2.000
G0 X18.177 Y35.042
G0 Z0.500
G1 Z-1.780 F70
G0 Z2.000
G0 X18.672 Y15.191
G0 Z0.500
G1 Z-1.780 F70
G0 Z2.000
G0 X18.816 Y28.042
G0 Z0.500
G1 Z-1.780 F70
G0 Z2.000
G0 X18.911 Y29.295
G0 Z0.500
G1 Z-1.780 F70
G0 Z2.000
G0 X18.926 Y19.037
G0 Z0.500
G1 Z-1.780 F70
G0 Z2.000
G0 X18.937 Y23.683
G0 Z0.500
G1 Z-1.780 F70
G0 Z2.000
G0 X18.967 Y33.202
G0 Z0.500
G1 Z-1.780 F70
G0 Z2.000
G0 X19.938 Y46.167
G0 Z0.500
G1 Z-1.780 F70
G0 Z2.000
G0 X20.000 Y47.097
G0 Z0.500
G1 Z-1.780 F70
G0 Z2.000
G0 X20.005 Y36.702
G0 Z0.500
G1 Z-1.780 F70
G0 Z2.000
G0 X20.128 Y37.493
G0 Z0.500
G1 Z-1.780 F70
G0 Z2.000
G0 X20.354 Y10.694
G0 Z0.500
G1 Z-1.780 F70
G0 Z2.000
G0 X20.503 Y21.565
G0 Z0.500
G1 Z-1.780 F70
G0 Z2.000
G0 X20.590 Y47.778
G0 Z0.500
G1 Z-1.780 F70
G0 Z2.000
G0 X20.593 Y45.708
G0 Z0.500
G1 Z-1.780 F70
G0 Z2.000
G0 X20.670 Y34.345
G0 Z0.500
G1 Z-1.780 F70
G0 Z2.000
G0 X20.709 Y18.896
G0 Z0.500
G1 Z-1.780 F70
G0 Z2.000
G0 X21.021 Y46.987
G0 Z0.500
G1 Z-1.780 F70
G0 Z2.000
G0 X21.028 Y45.001
G0 Z0.500
G1 Z-1.780 F70
G0 Z2.000
G0 X21.295 Y27.838
G0 Z0.500
G1 Z-1.780 F70
G0 Z2.000
G0 X21.364 Y44.275
G0 Z0.500
G1 Z-1.780 F70
G0 Z2.000
G0 X22.204 Y37.390
G0 Z0.500
G1 Z-1.780 F70
G0 Z2.000
G0 X22.449 Y29.535
G0 Z0.500
G1 Z-1.780 F70
G0 Z2.000
G0 X22.588 Y38.629
G0 Z0.500
G1 Z-1.780 F70
G0 Z2.000
G0 X22.631 Y33.794
G0 Z0.500
G1 Z-1.780 F70
G0 Z2.000
G0 X22.799 Y41.254
G0 Z0.500
G1 Z-1.780 F70
G0 Z2.000
G0 X22.837 Y40.205
G0 Z0.500
G1 Z-1.780 F70
G0 Z2.000
G0 X22.855 Y36.117
G0 Z0.500
G1 Z-1.780 F70
G0 Z2.000
G0 X22.862 Y36.917
G0 Z0.500
G1 Z-1.780 F70
G0 Z2.000
G0 X22.905 Y11.908
G0 Z0.500
G1 Z-1.780 F70
G0 Z2.000
G0 X22.932 Y10.110
G0 Z0.500
G1 Z-1.780 F70
G0 Z2.000
G0 X23.119 Y16.986
G0 Z0.500
G1 Z-1.780 F70
G0 Z2.000
G0 X23.277 Y46.784
G0 Z0.500
G1 Z-1.780 F70
G0 Z2.000
G0 X23.282 Y38.231
G0 Z0.500
G1 Z-1.780 F70
G0 Z2.000
G0 X23.391 Y13.264
G0 Z0.500
G1 Z-1.780 F70
G0 Z2.000
G0 X23.424 Y43.482
G0 Z0.500
G1 Z-1.780 F70
G0 Z2.000
G0 X23.962 Y18.996
G0 Z0.500
G1 Z-1.780 F70
G0 Z2.000
G0 X24.224 Y43.482
G0 Z0.500
G1 Z-1.780 F70
G0 Z2.000
G0 X24.418 Y40.701
G0 Z0.500
G1 Z-1.780 F70
G0 Z2.000
G0 X24.595 Y10.382
G0 Z0.500
G1 Z-1.780 F70
G0 Z2.000
G0 X24.686 Y41.661
G0 Z0.500
G1 Z-1.780 F70
G0 Z2.000
G0 X25.036 Y12.043
G0 Z0.500
G1 Z-1.780 F70
G0 Z2.000
G0 X25.320 Y27.862
G0 Z0.500
G1 Z-1.780 F70
G0 Z2.000
G0 X25.546 Y41.310
G0 Z0.500
G1 Z-1.780 F70
G0 Z2.000
G0 X25.582 Y44.980
G0 Z0.500
G1 Z-1.780 F70
G0 Z2.000
G0 X26.041 Y11.296
G0 Z0.500
G1 Z-1.780 F70
G0 Z2.000
G0 X26.488 Y41.368
G0 Z0.500
G1 Z-1.780 F70
G0 Z2.000
G0 X27.247 Y10.643
G0 Z0.500
G1 Z-1.780 F70
G0 Z2.000
G0 X27.321 Y35.894
G0 Z0.500
G1 Z-1.780 F70
G0 Z2.000
G0 X27.354 Y40.382
G0 Z0.500
G1 Z-1.780 F70
G0 Z2.000
G0 X27.738 Y41.090
G0 Z0.500
G1 Z-1.780 F70
G0 Z2.000
G0 X27.763 Y39.544
G0 Z0.500
G1 Z-1.780 F70
G0 Z2.000
G0 X28.814 Y15.899
G0 Z0.500
G1 Z-1.780 F70
G0 Z2.000
G0 X29.627 Y24.571
G0 Z0.500
G1 Z-1.780 F70
G0 Z2.000
G0 X30.182 Y42.902
G0 Z0.500
G1 Z-1.780 F70
G0 Z2.000
G0 X30.297 Y36.548
G0 Z0.500
G1 Z-1.780 F70
G0 Z2.000
G0 X30.348 Y10.000
G0 Z0.500
G1 Z-1.780 F70
G0 Z2.000
G0 X30.358 Y12.444
G0 Z0.500
G1 Z-1.780 F70
G0 Z2.000
G0 X30.642 Y36.000
G0 Z0.500
G1 Z-1.780 F70
G0 Z2.000
G0 X30.830 Y33.807
G0 Z0.500
G1 Z-1.780 F70
G0 Z2.000
G0 X30.862 Y48.895
G0 Z0.500
G1 Z-1.780 F70
G0 Z2.000
G0 X31.182 Y48.363
G0 Z0.500
G1 Z-1.780 F70
G0 Z2.000
G0 X31.489 Y48.918
G0 Z0.500
G1 Z-1.780 F70
G0 Z2.000
G0 X31.651 Y42.974
G0 Z0.500
G1 Z-1.780 F70
G0 Z2.000
G0 X31.833 Y48.369
G0 Z0.500
G1 Z-1.780 F70
G0 Z2.000
G0 X32.040 Y28.115
G0 Z0.500
G1 Z-1.780 F70
G0 Z2.000
G0 X32.064 Y45.532
G0 Z0.500
G1 Z-1.780 F70
G0 Z2.000
G0 X32.070 Y34.326
G0 Z0.500
G1 Z-1.780 F70
G0 Z2.000
G0 X32.079 Y27.207
G0 Z0.500
G1 Z-1.780 F70
G0 Z2.000
G0 X32.108 Y48.928
G0 Z0.500
G1 Z-1.780 F70
G0 Z2.000
G0 X32.115 Y38.972
G0 Z0.500
G1 Z-1.780 F70
G0 Z2.000
G0 X32.175 Y39.797
G0 Z0.500
G1 Z-1.780 F70
G0 Z2.000
G0 X32.239 Y29.479
G0 Z0.500
G1 Z-1.780 F70
G0 Z2.000
G0 X32.446 Y43.649
G0 Z0.500
G1 Z-1.780 F70
G0 Z2.000
G0 X32.473 Y17.666
G0 Z0.500
G1 Z-1.780 F70
G0 Z2.000
G0 X32.473 Y16.697
G0 Z0.500
G1 Z-1.780 F70
G0 Z2.000
G0 X32.483 Y48.380
G0 Z0.500
G1 Z-1.780 F70
G0 Z2.000
G0 X33.056 Y25.067
G0 Z0.500
G1 Z-1.780 F70
G0 Z2.000
G0 X33.056 Y23.797
G0 Z0.500
G1 Z-1.780 F70
G0 Z2.000
G0 X33.108 Y23.180
G0 Z0.500
G1 Z-1.780 F70
G0 Z2.000
G0 X33.246 Y44.032
G0 Z0.500
G1 Z-1.780 F70
G0 Z2.000
G0 X33.249 Y46.411
G0 Z0.500
G1 Z-1.780 F70
G0 Z2.000
G0 X33.542 Y24.433
G0 Z0.500
G1 Z-1.780 F70
G0 Z2.000
G0 X34.048 Y29.389
G0 Z0.500
G1 Z-1.780 F70
G0 Z2.000
G0 X34.121 Y43.696
G0 Z0.500
G1 Z-1.780 F70
G0 Z2.000
G0 X34.209 Y39.500
G0 Z0.500
G1 Z-1.780 F70
G0 Z2.000
G0 X35.294 Y31.545
G0 Z0.500
G1 Z-1.780 F70
G0 Z2.000
G0 X35.440 Y44.392
G0 Z0.500
G1 Z-1.780 F70
G0 Z2.000
G0 X35.440 Y43.772
G0 Z0.500
G1 Z-1.780 F70
G0 Z2.000
G0 X35.621 Y32.097
G0 Z0.500
G1 Z-1.780 F70
G0 Z2.000
G0 X35.621 Y30.992
G0 Z0.500
G1 Z-1.780 F70
G0 Z2.000
G0 X35.909 Y30.439
G0 Z0.500
G1 Z-1.780 F70
G0 Z2.000
G0 X35.914 Y38.058
G0 Z0.500
G1 Z-1.780 F70
G0 Z2.000
G0 X35.917 Y31.537
G0 Z0.500
G1 Z-1.780 F70
G0 Z2.000
G0 X35.977 Y44.095
G0 Z0.500
G1 Z-1.780 F70
G0 Z2.000
G0 X35.990 Y44.727
G0 Z0.500
G1 Z-1.780 F70
G0 Z2.000
G0 X36.213 Y26.603
G0 Z0.500
G1 Z-1.780 F70
G0 Z2.000
G0 X36.222 Y38.609
G0 Z0.500
G1 Z-1.780 F70
G0 Z2.000
G0 X36.236 Y30.984
G0 Z0.500
G1 Z-1.780 F70
G0 Z2.000
G0 X36.365 Y32.422
G0 Z0.500
G1 Z-1.780 F70
G0 Z2.000
G0 X36.369 Y12.419
G0 Z0.500
G1 Z-1.780 F70
G0 Z2.000
G0 X36.396 Y33.971
G0 Z0.500
G1 Z-1.780 F70
G0 Z2.000
G0 X36.404 Y10.000
G0 Z0.500
G1 Z-1.780 F70
G0 Z2.000
G0 X36.459 Y35.554
G0 Z0.500
G1 Z-1.780 F70
G0 Z2.000
G0 X36.521 Y43.772
G0 Z0.500
G1 Z-1.780 F70
G0 Z2.000
G0 X36.533 Y45.030
G0 Z0.500
G1 Z-1.780 F70
G0 Z2.000
G0 X36.533 Y44.398
G0 Z0.500
G1 Z-1.780 F70
G0 Z2.000
G0 X36.539 Y31.521
G0 Z0.500
G1 Z-1.780 F70
G0 Z2.000
G0 X36.539 Y30.424
G0 Z0.500
G1 Z-1.780 F70
G0 Z2.000
G0 X36.546 Y38.074
G0 Z0.500
G1 Z-1.780 F70
G0 Z2.000
G0 X36.668 Y13.555
G0 Z0.500
G1 Z-1.780 F70
G0 Z2.000
G0 X36.838 Y38.634
G0 Z0.500
G1 Z-1.780 F70
G0 Z2.000
G0 X36.858 Y30.984
G0 Z0.500
G1 Z-1.780 F70
G0 Z2.000
G0 X36.878 Y37.540
G0 Z0.500
G1 Z-1.780 F70
G0 Z2.000
G0 X36.929 Y28.530
G0 Z0.500
G1 Z-1.780 F70
G0 Z2.000
G0 X37.058 Y33.522
G0 Z0.500
G1 Z-1.780 F70
G0 Z2.000
G0 X37.070 Y45.352
G0 Z0.500
G1 Z-1.780 F70
G0 Z2.000
G0 X37.077 Y44.714
G0 Z0.500
G1 Z-1.780 F70
G0 Z2.000
G0 X37.077 Y44.082
G0 Z0.500
G1 Z-1.780 F70
G0 Z2.000
G0 X37.162 Y31.521
G0 Z0.500
G1 Z-1.780 F70
G0 Z2.000
G0 X37.170 Y38.107
G0 Z0.500
G1 Z-1.780 F70
G0 Z2.000
G0 X37.462 Y38.650
G0 Z0.500
G1 Z-1.780 F70
G0 Z2.000
G0 X37.481 Y32.074
G0 Z0.500
G1 Z-1.780 F70
G0 Z2.000
G0 X37.664 Y48.749
G0 Z0.500
G1 Z-1.780 F70
G0 Z2.000
G0 X37.677 Y45.340
G0 Z0.500
G1 Z-1.780 F70
G0 Z2.000
G0 X37.985 Y48.217
G0 Z0.500
G1 Z-1.780 F70
G0 Z2.000
G0 X38.102 Y38.650
G0 Z0.500
G1 Z-1.780 F70
G0 Z2.000
G0 X38.112 Y32.090
G0 Z0.500
G1 Z-1.780 F70
G0 Z2.000
G0 X38.252 Y12.144
G0 Z0.500
G1 Z-1.780 F70
G0 Z2.000
G0 X38.292 Y48.773
G0 Z0.500
G1 Z-1.780 F70
G0 Z2.000
G0 X38.297 Y45.346
G0 Z0.500
G1 Z-1.780 F70
G0 Z2.000
G0 X38.635 Y48.223
G0 Z0.500
G1 Z-1.780 F70
G0 Z2.000
G0 X38.734 Y38.634
G0 Z0.500
G1 Z-1.780 F70
G0 Z2.000
G0 X38.742 Y32.097
G0 Z0.500
G1 Z-1.780 F70
G0 Z2.000
G0 X38.833 Y18.955
G0 Z0.500
G1 Z-1.780 F70
G0 Z2.000
G0 X38.911 Y48.783
G0 Z0.500
G1 Z-1.780 F70
G0 Z2.000
G0 X38.935 Y45.346
G0 Z0.500
G1 Z-1.780 F70
G0 Z2.000
G0 X39.108 Y25.661
G0 Z0.500
G1 Z-1.780 F70
G0 Z2.000
G0 X39.286 Y48.234
G0 Z0.500
G1 Z-1.780 F70
G0 Z2.000
G0 X39.458 Y11.346
G0 Z0.500
G1 Z-1.780 F70
G0 Z2.000
G0 X39.502 Y15.164
G0 Z0.500
G1 Z-1.780 F70
G0 Z2.000
G0 X39.510 Y17.500
G0 Z0.500
G1 Z-1.780 F70
G0 Z2.000
G0 X40.739 Y10.593
G0 Z0.500
G1 Z-1.780 F70
G0 Z2.000
G0 X40.927 Y34.001
G0 Z0.500
G1 Z-1.780 F70
G0 Z2.000
G0 X40.933 Y33.351
G0 Z0.500
G1 Z-1.780 F70
G0 Z2.000
G0 X40.944 Y32.700
G0 Z0.500
G1 Z-1.780 F70
G0 Z2.000
G0 X40.944 Y27.276
G0 Z0.500
G1 Z-1.780 F70
G0 Z2.000
G0 X40.948 Y35.300
G0 Z0.500
G1 Z-1.780 F70
G0 Z2.000
G0 X40.950 Y26.625
G0 Z0.500
G1 Z-1.780 F70
G0 Z2.000
G0 X40.961 Y25.975
G0 Z0.500
G1 Z-1.780 F70
G0 Z2.000
G0 X40.971 Y40.906
G0 Z0.500
G1 Z-1.780 F70
G0 Z2.000
G0 X40.976 Y40.255
G0 Z0.500
G1 Z-1.780 F70
G0 Z2.000
G0 X40.988 Y39.605
G0 Z0.500
G1 Z-1.780 F70
G0 Z2.000
G0 X41.270 Y28.381
G0 Z0.500
G1 Z-1.780 F70
G0 Z2.000
G0 X41.459 Y34.322
G0 Z0.500
G1 Z-1.780 F70
G0 Z2.000
G0 X41.476 Y27.596
G0 Z0.500
G1 Z-1.780 F70
G0 Z2.000
G0 X41.483 Y33.694
G0 Z0.500
G1 Z-1.780 F70
G0 Z2.000
G0 X41.500 Y26.969
G0 Z0.500
G1 Z-1.780 F70
G0 Z2.000
G0 X41.503 Y41.226
G0 Z0.500
G1 Z-1.780 F70
G0 Z2.000
G0 X41.510 Y26.350
G0 Z0.500
G1 Z-1.780 F70
G0 Z2.000
G0 X41.526 Y40.599
G0 Z0.500
G1 Z-1.780 F70
G0 Z2.000
G0 X41.536 Y39.980
G0 Z0.500
G1 Z-1.780 F70
G0 Z2.000
G0 X42.028 Y28.636
G0 Z0.500
G1 Z-1.780 F70
G0 Z2.000
G0 X42.033 Y27.986
G0 Z0.500
G1 Z-1.780 F70
G0 Z2.000
G0 X42.039 Y35.344
G0 Z0.500
G1 Z-1.780 F70
G0 Z2.000
G0 X42.045 Y34.694
G0 Z0.500
G1 Z-1.780 F70
G0 Z2.000
G0 X42.045 Y27.335
G0 Z0.500
G1 Z-1.780 F70
G0 Z2.000
G0 X42.056 Y34.043
G0 Z0.500
G1 Z-1.780 F70
G0 Z2.000
G0 X42.089 Y41.644
G0 Z0.500
G1 Z-1.780 F70
G0 Z2.000
G0 X42.094 Y40.993
G0 Z0.500
G1 Z-1.780 F70
G0 Z2.000
G0 X42.106 Y40.343
G0 Z0.500
G1 Z-1.780 F70
G0 Z2.000
G0 X42.167 Y15.664
G0 Z0.500
G1 Z-1.780 F70
G0 Z2.000
G0 X42.560 Y28.956
G0 Z0.500
G1 Z-1.780 F70
G0 Z2.000
G0 X42.571 Y35.664
G0 Z0.500
G1 Z-1.780 F70
G0 Z2.000
G0 X42.583 Y28.329
G0 Z0.500
G1 Z-1.780 F70
G0 Z2.000
G0 X42.593 Y27.710
G0 Z0.500
G1 Z-1.780 F70
G0 Z2.000
G0 X42.594 Y35.037
G0 Z0.500
G1 Z-1.780 F70
G0 Z2.000
G0 X42.605 Y34.418
G0 Z0.500
G1 Z-1.780 F70
G0 Z2.000
G0 X42.620 Y41.964
G0 Z0.500
G1 Z-1.780 F70
G0 Z2.000
G0 X42.644 Y41.336
G0 Z0.500
G1 Z-1.780 F70
G0 Z2.000
G0 X42.654 Y40.718
G0 Z0.500
G1 Z-1.780 F70
G0 Z2.000
G0 X43.340 Y42.314
G0 Z0.500
G1 Z-1.780 F70
G0 Z2.000
G0 X43.839 Y10.122
G0 Z0.500
G1 Z-1.780 F70
G0 Z2.000
G0 X43.854 Y11.909
G0 Z0.500
G1 Z-1.780 F70
G0 Z2.000
G0 X44.056 Y17.658
G0 Z0.500
G1 Z-1.780 F70
G0 Z2.000
G0 X44.056 Y15.361
G0 Z0.500
G1 Z-1.780 F70
G0 Z2.000
G0 X45.340 Y20.680
G0 Z0.500
G1 Z-1.780 F70
G0 Z2.000
G0 X45.553 Y32.365
G0 Z0.500
G1 Z-1.780 F70
G0 Z2.000
G0 X45.558 Y31.714
G0 Z0.500
G1 Z-1.780 F70
G0 Z2.000
G0 X45.570 Y31.064
G0 Z0.500
G1 Z-1.780 F70
G0 Z2.000
G0 X45.632 Y44.973
G0 Z0.500
G1 Z-1.780 F70
G0 Z2.000
G0 X45.637 Y44.323
G0 Z0.500
G1 Z-1.780 F70
G0 Z2.000
G0 X45.649 Y43.672
G0 Z0.500
G1 Z-1.780 F70
G0 Z2.000
G0 X46.085 Y32.685
G0 Z0.500
G1 Z-1.780 F70
G0 Z2.000
G0 X46.108 Y32.058
G0 Z0.500
G1 Z-1.780 F70
G0 Z2.000
G0 X46.118 Y31.439
G0 Z0.500
G1 Z-1.780 F70
G0 Z2.000
G0 X46.164 Y45.294
G0 Z0.500
G1 Z-1.780 F70
G0 Z2.000
G0 X46.187 Y44.666
G0 Z0.500
G1 Z-1.780 F70
G0 Z2.000
G0 X46.197 Y44.047
G0 Z0.500
G1 Z-1.780 F70
G0 Z2.000
M5
M802
G28
M30
